shared/images/iconfont/kb-iconfont-folder-downloads-16.svg

<?xml version="1.0" encoding="UTF-8"?>
<svg width="16px" height="16px" viewBox="0 0 16 16" version="1.1" xmlns="http://www.w3.org/2000/svg" xmlns:xlink="http://www.w3.org/1999/xlink">
    <!-- Generator: sketchtool 49.2 (51160) - http://www.bohemiancoding.com/sketch -->
    <title>CA8B7A2D-709D-4499-B043-21F216346ED4</title>
    <desc>Created with sketchtool.</desc>
    <defs></defs>
    <g id="Colors,-icons" stroke="none" stroke-width="1" fill="none" fill-rule="evenodd">
        <g id="Icons-2" transform="translate(-338.000000, -511.000000)">
            <g id="kb-iconfont-folder-downloads-16" transform="translate(338.000000, 511.000000)">
                <g id="kb-iconfont-folder-public">
                    <rect id="icon-area" fill="#FFFFFF" opacity="0" x="0" y="0" width="16" height="16"></rect>
                    <path d="M14.6666533,3.00368 L9.33342667,3.00368 L9.33342667,7.00372 L11.0572372,7.00372 C11.3268688,7.00371249 11.5699523,7.16613628 11.673128,7.4152466 C11.7763038,7.66435693 11.7192508,7.9510903 11.5285753,8.14173138 L8.00008,11.6704333 L4.47137805,8.14173138 C4.28074685,7.95104261 4.22374883,7.66429958 4.32696035,7.41520153 C4.43017188,7.16610347 4.67326883,7.00370208 4.94290276,7.00372 L6.66673333,7.00372 L6.66673333,2.00399667 L5.9999,1.00366 L1.33334667,1.00366 C0.596974887,1.00369682 3.68158279e-05,1.60063489 0,2.33700667 L0,13.5999756 C3.68158279e-05,14.3363474 0.596974887,14.9999632 1.33334667,15 L14.6666533,15 C15.4030251,14.9999632 15.9999632,14.3363474 16,13.5999756 L16,4.33702667 C15.9999632,3.60065489 15.4030251,3.00371682 14.6666533,3.00368 Z" id="folder-download" fill="#000000" fill-rule="nonzero"></path>
                </g>
            </g>
        </g>
    </g>
</svg>

<svg xmlns="http://www.w3.org/2000/svg" width="16" height="16" viewBox="0 0 16 16">
    <path fill="#000" fill-rule="nonzero" d="M14.667 3.004H9.333v4h1.724a.667.667 0 0 1 .472 1.138L8 11.67 4.471 8.142a.667.667 0 0 1 .472-1.138h1.724v-5l-.667-1H1.333C.597 1.004 0 1.6 0 2.337V13.6c0 .736.597 1.4 1.333 1.4h13.334c.736 0 1.333-.664 1.333-1.4V4.337c0-.736-.597-1.333-1.333-1.333z"/>
</svg>
